X:1
T:Title
%%score { 1 | 2 }
L:1/8
M:3/4
K:E
V:1 treble nm="Grand Piano"
V:2 bass 
V:1
 z2 z2[Q:1/4=106] [B,GB]>[B,FA] | [B,EG]2 [^A,E=G]2 [B,E^G]2 | [EGB]4 [B,EG]>[A,B,F] | %3
 [G,B,E]2 [B,E]2 [B,DF]2 | [B,EG]4 [B,GB]>[Ge] | [Ad]4 [Ad]>[Ad] | [Ad]2 [Ac]2 [GB]2 | %7
 [Ac]2 [GB]2 [FA]2 | G4 G>F | E2 G2 [Ac]2 | [GB]4 [GB]>[FA] | G2 F2 E2 | c4 c>c | %13
 [Ad]2 [Ac]2 [Ad]2 | [Ge]4 [=DEB]>[CEA] | [B,EG] [B,EG]3 [A,DF]2 |[M:2/4] [G,E]4 | %17
[M:1/4] [B,GB]>[Ge] |[M:3/4] [Ad]4 [Ad]>[Ad] | [Ad]2 [Ac]2 [Ad]2 | [Ge]2 [Bd]2 [Ac]2 | %21
 [GB]4 [GB]>[Ge] | [Ad]4 [Ad]>[Ad] | [Ad]2 [Ac]2 [GB]2 | [Ac]2 [GB]2 [FA]2 | G4 G>F | E2 G2 [Ac]2 | %27
 [GB]4 [GB]>[FA] | G2 F2 E2 | c4 c>c | [Ad]2 [Ac]2 [Ad]2 | [Ge]4 [=DEB]>[CEA] | %32
 [B,EG] [B,EG]3 [A,DF]2 |[M:6/4] .[G,E]6 z6 |] %34
V:2
 z2 z2 E,>E, | E,2 E,2 E,2 | E,4 E,>E, | E,2 G,,2 B,,2 | E,4 E,>[E,B,] | [F,B,]4 [F,B,]>[F,B,] | %6
 [B,,B,]2 [B,,B,]2 [B,,B,]2 | [B,,B,]2 [C,B,]2 [D,B,]2 | [E,B,E]4 [E,B,E]>[E,A,B,] | %9
 [E,G,B,]2 [E,B,E]2 [E,E]2 | [E,E]4 [E,B,]>[E,B,] | [E,B,E]2 [F,B,D]2 [G,B,]2 | %12
 [A,E]4 [A,E]>[G,A,E] | [F,B,]2 [F,B,]2 [F,B,]2 | [E,B,]4 G,,>A,, | B,, B,,3 B,,2 |[M:2/4] E,4 | %17
[M:1/4] E,>[E,B,] |[M:3/4] [F,B,]4 [F,B,]>[F,B,] | [B,,B,]2 [B,,B,]2 [B,,B,]2 | %20
 [E,B,]2 [E,E]2 [E,E]2 | [E,E]4 [E,B,]>[E,B,] | [F,B,]4 [F,B,]>[F,B,] | %23
 [B,,B,]2 [B,,B,]2 [B,,B,]2 | [B,,B,]2 [C,B,]2 [D,B,]2 | [E,B,E]4 [E,B,E]>[E,A,B,] | %26
 [E,G,B,]2 [E,B,E]2 [E,E]2 | [E,E]4 [E,B,]>[E,B,] | [E,B,E]2 [F,B,D]2 [G,B,]2 | %29
 [A,E]4 [A,E]>[G,A,E] | [F,B,]2 [F,B,]2 [F,B,]2 | [E,B,]4 G,,>A,, | B,, B,,3 B,,2 | %33
[M:6/4] .E,6 z6 |] %34

